X: 8103
T: Contentment Is Wealth
R: jig
M: 6/8
K: Edorian
f|:~g3 edB|BAB EFG|~F3 DFA|dAF AFD|
~g3 edB|BAB EGA|BdB AGF|1 GED EGB:|2 GED E2B||
|:~e3 Beg|bge gfe|dcd Adf|afd fed|
[1 ~e3 Beg|bge gfe|dcd AGF|GED ~E3:|
[2 ~g3 aga|bag fed|B/c/dB AGF|GED E2||

